X:1
T:Dixit Dominus - 9. Judicabit in nationibus
T:Dixit Dominus - 7. Judicabit in nationibus
T:George F. Handel
T:George F. Handel
C:George F. Handel
Z:George F. Handel
%%score 1 2
L:1/8
Q:1/4=80
M:4/4
K:F
V:1 treble nm="Soprano" snm="S."
V:2 treble nm="Piano" snm="Pno."
V:1
 z8 | z8 | z8 | z8 | z8 | z8 | z8 | z8 | z8 | z8 | z8 | z8 | z8 | z8 | z8 | z8 | z8 | z8 | z8 | %19
 z8 | z8 | z8 | z8 | z8 | z8 | z8 | z8 | z8 | z8 | z8 | z8 | z8 |"^B" z8 | z8 | z8 | z8 | z8 | z8 | %38
 z8 | z8 | z8 |"^C" z8 | z8 | z8 | z8 | z8 | z8 | z8 | z8 | z8 | z8 | z8 | z8 | z8 | z8 | z8 | z8 | %57
 z8 | z8 | z8 |[M:3/4][Q:1/2=60]"^D" z6 | z6 | z6 | z6 | z6 | z6 | z6 | z6 | z6 | z6 | z6 | z6 | %72
 z6 | z6 | z6 | z6 | z6 | z6 | z6 | z6 | z6 | z6 | z6 | z6 | z6 | z6 | z6 | z6 | z6 | z6 | z6 | %91
 z6 | z6 |"E" z6 | z6 | z6 | z6 | z6 | z6 | z6 | z6 | z6 | z6 | z6 | z6 | z6 | z6 | z6 | z6 | z6 | %110
 z6 | z6 | z6 | z6 | z6 | z6 | z6 | z6 | z6 | z6 | z6 | z6 | z6 | z6 |] %124
V:2
 z8 | z8 | z8 | F,3 F, A,3 B,/A,/ | G,2 C4 B,2- | B,2 A,2 D2 E2 | F4 C3 C | D3 E/D/ C2 F2- | %8
w: |||Ju- di- ca- * *|||bit, ju- di-|ca- * * * *|
 F2 E2 D3 C/B,/ | F2 z2 z4 | D3 D E2 C2 | D2 B,2 C4 | z8 | z8 | z2 z D G,A,B,C | DE F4 E2 | %16
w: |bit,|ju- di- ca- *|* * bit|||in na- * * *|* * * ti-|
 D3 D C4 |"^A" z8 | z8 | z8 | z8 | z8 | z8 | z8 | z4 z C CC/C/ | A,A, z F B,/C/D/E/ F/G/A/F/ | %26
w: o- ni- bus,||||||||im- ple- bit, ru-|i- nas, im- ple- * * * * * * *|
 GG/G/ FF/F/ EE z D |[K:treble-8] A/F/G/A/ B/c/d/e/ ff/f/ gg/g/ | aa z a ff/f/ ff/f/ | %29
w: * bit im- ple- bit ru- i- nas, im-|ple- * * * * * * * * bit, im- ple- bit ru-|i- nas, im- ple- bit, im- ple- bit ru-|
 gg z g ^c/d/c/=B/ AA | z edd z edd | z e dd/d/ aa/a/ df | z d e2 ^fdBB | z ddB z ddB | %34
w: i- nas, im- ple- * * * * bit,|im- ple- bit ru- i- nas,|im- ple- bit, im- ple- bit- ru- i- nas,|ru- i- nas, im- ple- bit|ru- i- nas, im- ple- bit|
 z e A2 =B2 z c | =BB z c BB z c | =Bc g2 ge dd/d/ | cc z e A/_B/c/d/ e/f/g/e/ | %38
w: ru- i- nas, im-|ple- bit ru- i- nas, ru-|i- * * nas, im- ple- bit ru-|i- nas, im- ple- * * * * * * *|
 ff/f/ ff/f/ ee z e | ^Ge z A Ge z e | ef/A/ e2 c2 z2 | z2 z f agfe | dcBd fc f2- | %43
w: * bit, im- ple- bit ru- i- nas, im-|ple- bit ru- i- nas, im-|ple- bit ru- i- nas,|in na- * * *||
 fe/d/ c2 dB c2 | d3 e/d/ e2 f2 | g2 c2 d3 d | eg gg/g/ ff z2 | c3 c d4 | c2 f2 B2 eg | %49
w: ||* ti- o- ni-|bus, im- ple- bit ru- i- nas,|ju- di- ca-||
 c2 z a c/d/e/f/ g/a/b/g/ | cc/c/ ff/f/ ff z d | g/f/e/d/ c/B/A/B/ GG z g | %52
w: bit, im- ple- * * * * * * *|* bit, im- ple- bit ru- i- nas, im-|ple- * * * * * * * * bit, im-|
 a/g/f/e/ d/c/B/d/ ee z F | =Bcde fagd | c>c c2 z2 z c | =BG z2 z gec | z d gG/=B/ cc z2 | %57
w: ple- * * * * * * * * bit in|na- * * * * * * ti-|o- ni- bus ru-|i- nas, eu- i- nas,|im- ple- bit ru- i- nas,|
 z4 z c dd/d/ | ee z2 z2 z d | ^cA z f ee z2 |[M:3/4] z6 | z2 A2 A2 | A2 A2 A2 | A2 A2 A2 | %64
w: im- ple- bit ru-|i- nas, ru-|i- nas, ru- i- nas||con- quas-|sa- * *||
 A2 A2 d2 | d2 d2 d2 | d2 d2 d2 | d2 d2 d2 | d2 F2 z2 | Bc Bc Bc | B2 B2 c2 | c2 c2 z2 | cB cB cB | %73
w: |bit, con- quas-|sa- * *||* bit,|con- quas- sa- bit,con- quas- sa-||* bit,|con- quas- sa- bit, con- quas-|
 c2 c2 z2 | cB cB cB | c2 c2 c2 | c2 f2 a2 | c2 f2 a2 | c2 c2 c2 | c2 c2 c2 | d2 d2 d2 | d2 d2 d2 | %82
w: sa- bit,|con- quas- sa- bit, con- quas-|sa- * *||bit, con- quas-|sa- * *||||
 dc Bc de | A2 d2 z2 | AG AG AG | A2 A2 z2 | d2 z4 | d2 z4 | ^f2 z4 | ^f2 z4 | ^f3 f ff | %91
w: |* bit,|con- quas- sa- bit, con- quas-|sa- bit,|con-|quas-|sa-|bit|ca- pi- ta- in|
 d2 _eB eB | cG A4 | B2 B2 B2 | B2 B2 B2 | B2 B2 B2 | B2 B2 B2 | B2 B2 B2 | =e2 e2 z2 | e2 z4 | %100
w: ter- * * ra *|mul- * to-|rum, con- quas-|sa- * *||||* bit,|con-|
 e2 z4 | e2 z4 | e2 z4 | e3 e ee | c2 fe dc | Bc c4 | c2 z4 | z6 | z6 | z6 | z6 | z6 | z6 | z6 | %114
w: quas-|sa-|bit-|ca- pi- ta in|ter- * * ra- *|mul- * to-|rum.||||||||
 z6 | z6 | z6 | z6 | z6 | z6 | z6 | z6 | z6 | z6 |] %124
w: ||||||||||

